X:345
T: Duke's Retreat
N: O'Farrell's Pocket Companion v.4 (Sky ed. p.150)
N: "Scotch"
M: 2/4
L: 1/8
Q: 120
R: march
K: Em
G/A/| B/A/B/G/ E/F/G/A/| BGG>d | e/f/g/e/ d/B/A/G/| EAA G/A/|
B/A/B/G/ E/F/G/A/| B/A/G/F/ G/A/B/d/| e/f/g/e/ d/c/B/A/| GEE :|
z| g/a/g/e/ d/B/d/e/| g/f/g/a/ b>g| a/g/a/b/ c'/b/a/g/| eaag/a/|
b/a/g/f/ e/f/g/e/| d/B/A/G/ c/B/c/d/| e/f/g/e/ d/B/A/B/| GEE :|
